X: 33544
T: Raivlin, The
R: reel
M: 4/4
K: Dmajor
|:FE|D3G FEDA|GFED d3c|BDAD GDFD|EFGE FGFE|
D3G FEDA|GFED d3c|BDAD GDFD|EFGA D2:|
|:FG|Add2 Bdd2|cdef g3f|efge fgef|gaaA agfe|
d2ed fdgd|fedc BAGA|BDAD GDFD|EFGA D2:|

